X:1
T: The Cambridge Hornpipe
C:
R:Reel
Q: 232
K:D
M:4/4
L:1/8
|:A,2|D2 DC DF Ac|d2 dc dA FA|BG ED CD EF|GD EB, A,2 A,2|
D2 DC DF Ac|d2 dc dA FA|BG ED CD EG|FD EC D2:|
|:D2|A2 d2 AF D2|G2 e2 EF GE|ce Ac eA ce|df Ad fA df|
a2 f2 d2 A2|B2 GB AD FD|Ed cd AF EF|GE CE D2:|
